assets/icons/arrow_left.svg

<svg width="25" height="25" viewBox="0 0 25 25" fill="none" xmlns="http://www.w3.org/2000/svg">
<g id="arrow_left">
<path id="iconDefault" fill-rule="evenodd" clip-rule="evenodd" d="M22.2917 12.5C22.2917 12.1548 22.0119 11.875 21.6667 11.875L4.72513 11.875L10.4672 5.41522C10.6965 5.15723 10.6732 4.76219 10.4152 4.53286C10.1573 4.30354 9.76221 4.32678 9.53289 4.58477L2.86622 12.0848C2.65573 12.3216 2.65573 12.6784 2.86622 12.9152L9.53289 20.4152C9.76221 20.6732 10.1573 20.6964 10.4152 20.4671C10.6732 20.2378 10.6965 19.8428 10.4672 19.5848L4.72513 13.125H21.6667C22.0119 13.125 22.2917 12.8452 22.2917 12.5Z" fill="#18303F"/>
</g>
</svg>

<svg width="25" height="25" viewBox="0 0 25 25" fill="none"><g id="arrow_left"><path id="iconDefault" fill-rule="evenodd" clip-rule="evenodd" d="M22.292 12.5a.625.625 0 0 0-.625-.625H4.725l5.742-6.46a.625.625 0 0 0-.934-.83l-6.667 7.5a.625.625 0 0 0 0 .83l6.667 7.5a.625.625 0 0 0 .934-.83l-5.742-6.46h16.942c.345 0 .625-.28.625-.625Z" fill="#18303F"/></g></svg>
